!!!COM: Bach, Johann Sebastian
!!!OTL: 258. Meine Augen schliess' ich jetzt
!!!ONM: No. 258
!!!OCL: Erk
!!!SCA: BWV 378
!!!YOE: Riemenschneider, Albert
!!!OPR: 371 Harmonized Chorales and 69 Chorale Melodies with Figured Bass
!!!OPT: Bach Chorale Harmonizations
**harm	**root	**kern	**kern	**kern	**kern
!	!	!bass	!tenor	!alto	!sprno
*Iorgan	*Iorgan	*Iorgan	*Iorgan	*Iorgan	*Iorgan
*k[f#c#]	*k[f#c#]	*k[f#c#]	*k[f#c#]	*k[f#c#]	*k[f#c#]
*D:	*D:	*D:	*D:	*D:	*D:
*met(c)	*met(c)	*met(c)	*met(c)	*met(c)	*met(c)
*M4/4	*M4/4	*M4/4	*M4/4	*M4/4	*M4/4
*MM60	*MM60	*MM60	*MM60	*MM60	*MM60
I	4GG	8DD	8F#	4A	4d
.	.	8EE	8E	.	.
=1	=1	=1	=1	=1	=1
Ib	4GG	8FF#	4D	4A	4d
.	.	8GG	.	.	.
V	4DD	8AA	4C#	4E	4A
.	.	8GG	.	.	.
Ib	4GG	4FF#	4D	4A	4d
viiob	4FF#	4EE	4G	8B	4e
.	.	.	.	8c#	.
=2	=2	=2	=2	=2	=2
I;	2.GG;	2DD;	2A;	2d;	2f#;
.	.	4r	4r	4r	4r
Ib	4GG	4FF#	4A	[4d	4a
=3	=3	=3	=3	=3	=3
IV	4CC	4.GG	4G	8d]	4b
.	.	.	.	8c#	.
Ib	4GG	.	4A	[4d	4a
.	.	8FF#	.	.	.
ii7	4AA	4EE	8B	8d]	4.g
.	.	.	16A	16c#	.
.	.	.	16G	16B	.
V	4DD	4AAA	4A	4c#	.
.	.	.	.	.	8a
=4	=4	=4	=4	=4	=4
I;	2GG;	2DD;	2A;	2d;	2f#;
r	4r	4r	4r	4r	4r
I	4GG	4DD	4F#	[4d	4a
=5	=5	=5	=5	=5	=5
viiob	4FF#	4EE	4G	8d]	4g
.	.	.	.	8c#	.
Ib	4GG	8FF#	4A	[4d	4f#
.	.	8GG	.	.	.
V	4DD	4AA	[4A	8d]	4e
.	.	.	.	8c#	.
viiob/V	4CC#	4BB	8A]	8d	4d
.	.	.	8G#	8D	.
=6	=6	=6	=6	=6	=6
V;	2DD;	2AA;	2c#;	2A;	2e;
r	4r	4r	4r	4r	4r
Vb/vi	4BB	4AA#	4F#	4c#	4f#
=7	=7	=7	=7	=7	=7
vi	4EE	4.BB	4F#	8c#	4d
.	.	.	.	16B	.
.	.	.	.	16c#	.
IVb	8CC	.	8B	8d	4g
V7b	8DD	8C#	8A	[8e	.
I	4GG	4D	4A	8e]	4f#
.	.	.	.	8d	.
V	4DD	4AA	8.A	8d	4e
.	.	.	.	8c#	.
.	.	.	16G	.	.
=8	=8	=8	=8	=8	=8
I;	2GG;	2DD;	2F#;	2A;	2d;
r	4r	4r	4r	4r	4r
I	4GG	8DD	4A	4d	8f#
.	.	8EE	.	.	8g
=9	=9	=9	=9	=9	=9
!!linebreak: 2
Ib	4GG	4.FF#	8A	4d	4a
.	.	.	8G	.	.
Ib	8GG	.	4F#	4d	4a
vi7	8EE	8BB	.	.	.
ii7	4AA	4EE	4G	8d	4g
.	.	.	.	8c#	.
Ib	4GG	8FF#	4A	4d	4f#
.	.	8GG	.	.	.
=10	=10	=10	=10	=10	=10
V;	2DD;	2AA;	2A;	4d	2e;
.	.	.	.	4c#;	.
r	4r	4r	4r	4r	4r
Vb/vi	4BB	4AA#	4F#	4c#	4f#
=11	=11	=11	=11	=11	=11
vi	4EE	8BB	8F#	4B	4d
.	.	8AA	8G	.	.
Ib	4GG	8GG	4A	4A	4d
.	.	8FF#	.	.	.
iib	4AA	8GG	4G	4B	4e
.	.	8FF#	.	.	.
Vb/ii	4EE	8EE	[4F#	4B	4f#
.	.	8DD#	.	.	.
=12	=12	=12	=12	=12	=12
ii	4AA	8EE	8F#]	2B	2g
.	.	8FF#	16E	.	.
.	.	.	16D#	.	.
iib	4AA	8GG	4E	.	.
.	.	8AA	.	.	.
VI;	4EE;	4BB;	8E	4B;	4f#;
.	.	.	8D#;	.	.
Vb/IV	4GG	4FF#	4D	8A	4a
.	.	.	.	8c	.
=13	=13	=13	=13	=13	=13
IV	4CC	4GG	4D	8B	4g
.	.	.	.	4d	.
V	4DD	4AA	4A	.	4e
.	.	.	.	8c#y	.
I	4GG	8D	4A	4d	4f#
.	.	8C#	.	.	.
IVb	4CC	4BB	4B	4d	4g
=14	=14	=14	=14	=14	=14
Ib;	2GG;	2FF#;	2A;	2d;	2a;
r	4r	4r	4r	4r	4r
vi	4EE	8BB	4F#	[4B	4d
.	.	8AA	.	.	.
=15	=15	=15	=15	=15	=15
iib	8AA	4GG	8G	8B]	4e
V7d	8DD	.	8A	8c#	.
Ib	8GG	8FF#	8A	[4d	4f#
vi	8EE	8BB	16B	.	.
.	.	.	16A	.	.
viiob	4FF#	4EE	4G	8d]	4g
.	.	.	.	8c#	.
Ib	4GG	8FF#	4A	4d	4f#
.	.	8DD	.	.	.
=16	=16	=16	=16	=16	=16
ii7b	4AA	4GG	4B	8d	2e
.	.	.	.	16c#	.
.	.	.	.	16B	.
V	4DD	4AA	8.A	4c#	.
.	.	.	16G	.	.
I;	4GG;	4DD;	4F#;	4A;	4d;
==	==	==	==	==	==
*-	*-	*-	*-	*-	*-
!!!CDT: 1685/3//-1750/7/28
!!!OCY: Deutschland
!!!AGN: chorale
!!!AST: Baroque
!!!AIN: vox
!!!YOY: 1941
!!!PPP: New York; London
!!!PPR: G. Schirmer
!!!ENC: David Huron
!!!EED: David Huron
!!!YEN: United States of America
!!!YER: 1992
!!!YEC: Copyright 1992 David Huron
!!!YEM: Rights to all derivative electronic formats reserved.
!!!YER: March 20, 1996
!!!AMT: simple quadruple
!!!EEV: 1.1
!!chor2scor: -l 2 -s 0.6 -o %b.pmx
